Flat-Remix-Dark/apps/scalable/indicator-cpufreq.svg

<?xml version="1.0" encoding="UTF-8" standalone="no"?> <svg xmlns:dc="http://purl.org/dc/elements/1.1/" xmlns:cc="http://creativecommons.org/ns#" xmlns:rdf="http://www.w3.org/1999/02/22-rdf-syntax-ns#" xmlns:svg="http://www.w3.org/2000/svg" xmlns="http://www.w3.org/2000/svg" xmlns:xlink="http://www.w3.org/1999/xlink" xmlns:sodipodi="http://sodipodi.sourceforge.net/DTD/sodipodi-0.dtd" xmlns:inkscape="http://www.inkscape.org/namespaces/inkscape" width="384pt" height="384pt" version="1.1" viewBox="0 0 384 384" id="svg71" sodipodi:docname="xfce4-cpufreq-plugin.svg" inkscape:version="0.92.2 2405546, 2018-03-11"> <metadata id="metadata75"> <rdf:RDF> <cc:Work rdf:about=""> <dc:format>image/svg+xml</dc:format> <dc:type rdf:resource="http://purl.org/dc/dcmitype/StillImage" /> </cc:Work> </rdf:RDF> </metadata> <sodipodi:namedview pagecolor="rgb(100.000%,100.000%,100.000%)" bordercolor="rgb(37.647%,38.823%,43.137%)" borderopacity="1" objecttolerance="10" gridtolerance="10" guidetolerance="10" inkscape:pageopacity="0" inkscape:pageshadow="2" inkscape:window-width="960" inkscape:window-height="1018" id="namedview73" showgrid="false" inkscape:zoom="0.4609375" inkscape:cx="257.01352" inkscape:cy="256.25546" inkscape:window-x="960" inkscape:window-y="34" inkscape:window-maximized="0" inkscape:current-layer="svg71" /> <defs id="defs27"> <filter id="alpha" width="100%" height="100%" x="0%" y="0%" filterUnits="objectBoundingBox"> <feColorMatrix in="SourceGraphic" type="matrix" values="0 0 0 0 1 0 0 0 0 1 0 0 0 0 1 0 0 0 1 0" id="feColorMatrix2" /> </filter> <mask id="mask0"> <g filter="url(#alpha)" id="g7"> <rect width="384" height="384" x="0" y="0" style="fill:rgb(0%,0%,0%);fill-opacity:0.2" id="rect5" /> </g> </mask> <clipPath id="clip1"> <rect width="384" height="384" x="0" y="0" id="rect10" /> </clipPath> <g id="surface5" clip-path="url(#clip1)"> <path style="fill:rgb(0%,0%,0%)" d="M 48 315.613281 L 48 327.613281 C 48 335.59375 56.027344 342 66 342 L 318 342 C 327.972656 342 336 335.59375 336 327.613281 L 336 315.613281 C 336 323.59375 327.972656 330 318 330 L 66 330 C 56.027344 330 48 323.59375 48 315.613281 Z M 48 315.613281" id="path13" /> </g> <mask id="mask1"> <g filter="url(#alpha)" id="g18"> <rect width="384" height="384" x="0" y="0" style="fill:rgb(0%,0%,0%);fill-opacity:0.2" id="rect16" /> </g> </mask> <clipPath id="clip2"> <rect width="384" height="384" x="0" y="0" id="rect21" /> </clipPath> <g id="surface8" clip-path="url(#clip2)"> <path style="fill:rgb(100.000%,100.000%,100.000%)" d="M 66 48 C 56.027344 48 48 54.414062 48 62.390625 L 48 68.390625 C 48 60.414062 56.027344 54 66 54 L 318 54 C 327.972656 54 336 60.414062 336 68.390625 L 336 62.390625 C 336 54.414062 327.972656 48 318 48 Z M 66 48" id="path24" /> </g> <filter filterUnits="objectBoundingBox" y="0%" x="0%" height="100%" width="100%" id="alpha-3"> <feColorMatrix id="feColorMatrix882" values="0 0 0 0 1 0 0 0 0 1 0 0 0 0 1 0 0 0 1 0" type="matrix" in="SourceGraphic" /> </filter> <mask id="mask0-6"> <g style="filter:url(#alpha-3)" id="g887" filter="url(#alpha)"> <rect id="rect885" style="fill:rgb(0%,0%,0%);fill-opacity:0.301961" y="0" x="0" height="384" width="384" /> </g> </mask> <clipPath id="clip1-7"> <rect id="rect890" y="0" x="0" height="384" width="384" /> </clipPath> <g clip-path="url(#clip1-7)" id="surface5-5"> <path id="path893" d="M 360.582031 106.402344 C 360.578125 126.488281 360.546875 151.808594 360.5 186.109375 L 360.300781 331.402344 L 358.097656 335.886719 C 353.679688 344.890625 343.585938 352.382812 334.90625 353.101562 C 331.425781 353.390625 330.785156 353.246094 330.785156 352.160156 C 330.785156 347.226562 324.546875 342.878906 318.324219 343.476562 C 313.75 343.917969 310.957031 345.878906 308.933594 350.078125 L 307.402344 353.253906 L 257.175781 353.253906 L 257.175781 353.238281 L 233.425781 353.238281 L 233.425781 353.253906 L 224.976562 353.253906 L 224.976562 353.238281 L 201.972656 353.238281 L 201.972656 353.253906 L 182.039062 353.253906 L 182.039062 353.238281 L 159.035156 353.238281 L 159.035156 353.253906 L 150.585938 353.253906 L 150.585938 353.238281 L 126.832031 353.238281 L 126.832031 353.253906 L 86.582031 353.199219 L 85.046875 349.96875 C 82.792969 345.21875 79.167969 343.070312 74.105469 343.476562 C 69.539062 343.839844 66.121094 346.367188 64.242188 350.761719 L 63.175781 353.253906 L 55.328125 353.199219 C 49.664062 353.160156 46.328125 352.734375 43.34375 351.675781 C 34.363281 348.488281 25.929688 339.332031 24.09375 330.777344 C 23.644531 328.6875 23.433594 305.558594 23.417969 252.894531 C 23.417969 310.757812 23.625 336.09375 24.09375 338.277344 C 25.929688 346.832031 34.363281 355.988281 43.34375 359.175781 C 46.328125 360.234375 49.664062 360.660156 55.328125 360.699219 L 63.175781 360.753906 L 64.242188 358.261719 C 66.121094 353.867188 69.539062 351.339844 74.105469 350.976562 C 79.167969 350.570312 82.792969 352.71875 85.046875 357.46875 L 86.582031 360.699219 L 126.832031 360.753906 L 126.832031 360.738281 L 150.585938 360.738281 L 150.585938 360.753906 L 159.035156 360.753906 L 159.035156 360.738281 L 182.039062 360.738281 L 182.039062 360.753906 L 201.972656 360.753906 L 201.972656 360.738281 L 224.976562 360.738281 L 224.976562 360.753906 L 233.425781 360.753906 L 233.425781 360.738281 L 257.175781 360.738281 L 257.175781 360.753906 L 307.402344 360.753906 L 308.933594 357.578125 C 310.957031 353.378906 313.75 351.417969 318.324219 350.976562 C 324.546875 350.378906 330.785156 354.726562 330.785156 359.660156 C 330.785156 360.746094 331.425781 360.890625 334.90625 360.601562 C 343.585938 359.882812 353.679688 352.390625 358.097656 343.386719 L 360.300781 338.902344 L 360.5 193.609375 C 360.550781 155.039062 360.585938 127.304688 360.582031 106.402344 Z M 360.582031 106.402344" style="fill:rgb(0%,0%,0%)" /> </g> <mask id="mask1-3"> <g style="filter:url(#alpha-3)" id="g898" filter="url(#alpha)"> <rect id="rect896" style="fill:rgb(0%,0%,0%);fill-opacity:0.301961" y="0" x="0" height="384" width="384" /> </g> </mask> <clipPath id="clip2-5"> <rect id="rect901" y="0" x="0" height="384" width="384" /> </clipPath> <g clip-path="url(#clip2-5)" id="surface8-6"> <path id="path904" d="M 62.816406 23.246094 L 53.996094 23.542969 C 46.234375 23.808594 44.640625 24.101562 40.695312 26.011719 C 34.988281 28.769531 28.730469 35.015625 25.910156 40.765625 L 23.707031 45.246094 L 23.472656 189.777344 C 23.429688 217.804688 23.410156 240.960938 23.417969 260.394531 C 23.417969 242.453125 23.433594 221.886719 23.472656 197.277344 L 23.707031 52.746094 L 25.910156 48.265625 C 28.730469 42.515625 34.988281 36.269531 40.695312 33.511719 C 44.640625 31.601562 46.234375 31.308594 53.996094 31.042969 L 62.816406 30.746094 L 64.515625 34.242188 C 68.800781 43.058594 80.847656 43.023438 85.046875 34.179688 L 86.582031 30.953125 L 197.128906 30.925781 L 307.679688 30.894531 L 308.199219 32.621094 C 308.863281 34.824219 312.167969 38.386719 314.835938 39.78125 C 317.511719 41.179688 321.847656 41.164062 324.597656 39.742188 C 327.398438 38.292969 330.785156 34.257812 330.785156 32.371094 C 330.785156 31.210938 331.328125 30.894531 333.34375 30.894531 C 343.636719 30.894531 355.425781 40.210938 359.175781 51.304688 C 360.269531 54.554688 360.574219 57.179688 360.582031 113.902344 C 360.597656 50.125 360.316406 47.1875 359.175781 43.804688 C 355.425781 32.710938 343.636719 23.394531 333.34375 23.394531 C 331.328125 23.394531 330.785156 23.710938 330.785156 24.871094 C 330.785156 26.757812 327.398438 30.792969 324.597656 32.242188 C 321.847656 33.664062 317.511719 33.679688 314.835938 32.28125 C 312.167969 30.886719 308.863281 27.324219 308.199219 25.121094 L 307.679688 23.394531 L 197.128906 23.425781 L 86.582031 23.453125 L 85.046875 26.679688 C 80.847656 35.523438 68.800781 35.558594 64.515625 26.742188 Z M 62.816406 23.246094" style="fill:rgb(100.000%,100.000%,100.000%)" /> </g> </defs> <path inkscape:connector-curvature="0" id="path29" d="m 348,240 v 12 H 36 v -12 z m 0,0" style="fill:rgb(100.000%,78.039%,18.823%);fill-opacity:1" /> <path inkscape:connector-curvature="0" id="path31" d="m 348,276 v 12 H 36 v -12 z m 0,0" style="fill:rgb(100.000%,78.039%,18.823%);fill-opacity:1" /> <path inkscape:connector-curvature="0" id="path33" d="m 348,312 v 12 H 36 v -12 z m 0,0" style="fill:rgb(100.000%,78.039%,18.823%);fill-opacity:1" /> <path inkscape:connector-curvature="0" id="path35" d="m 348,132 v 12 H 36 v -12 z m 0,0" style="fill:rgb(100.000%,78.039%,18.823%);fill-opacity:1" /> <path inkscape:connector-curvature="0" id="path37" d="m 348,168 v 12 H 36 v -12 z m 0,0" style="fill:rgb(100.000%,78.039%,18.823%);fill-opacity:1" /> <path inkscape:connector-curvature="0" id="path39" d="m 348,204 v 12 H 36 v -12 z m 0,0" style="fill:rgb(100.000%,78.039%,18.823%);fill-opacity:1" /> <path inkscape:connector-curvature="0" id="path41" d="m 348,96 v 12 H 36 V 96 Z m 0,0" style="fill:rgb(100.000%,78.039%,18.823%);fill-opacity:1" /> <path inkscape:connector-curvature="0" id="path43" d="M 348,60 V 72 H 36 V 60 Z m 0,0" style="fill:rgb(100.000%,78.039%,18.823%);fill-opacity:1" /> <path inkscape:connector-curvature="0" id="path45" d="M 144,348 H 132 V 36 h 12 z m 0,0" style="fill:rgb(100.000%,78.039%,18.823%);fill-opacity:1" /> <path inkscape:connector-curvature="0" id="path47" d="M 108,348 H 96 V 36 h 12 z m 0,0" style="fill:rgb(100.000%,78.039%,18.823%);fill-opacity:1" /> <path inkscape:connector-curvature="0" id="path49" d="M 72,348 H 60 V 36 h 12 z m 0,0" style="fill:rgb(100.000%,78.039%,18.823%);fill-opacity:1" /> <path inkscape:connector-curvature="0" id="path51" d="M 252,348 H 240 V 36 h 12 z m 0,0" style="fill:rgb(100.000%,78.039%,18.823%);fill-opacity:1" /> <path inkscape:connector-curvature="0" id="path53" d="M 216,348 H 204 V 36 h 12 z m 0,0" style="fill:rgb(100.000%,78.039%,18.823%);fill-opacity:1" /> <path inkscape:connector-curvature="0" id="path55" d="M 180,348 H 168 V 36 h 12 z m 0,0" style="fill:rgb(100.000%,78.039%,18.823%);fill-opacity:1" /> <path inkscape:connector-curvature="0" id="path57" d="M 288,348 H 276 V 36 h 12 z m 0,0" style="fill:rgb(100.000%,78.039%,18.823%);fill-opacity:1" /> <path inkscape:connector-curvature="0" id="path59" d="M 324,348 H 312 V 36 h 12 z m 0,0" style="fill:rgb(100.000%,78.039%,18.823%);fill-opacity:1" /> <use height="100%" width="100%" y="0" x="0" style="fill:rgb(100.000%,78.039%,18.823%);fill-opacity:1" id="use61" xlink:href="#surface5" mask="url(#mask0)" /> <path inkscape:connector-curvature="0" id="path63" d="M 336,321.60156 V 62.398438 C 336,54.445312 327.94141,48 318,48 H 66 C 56.058594,48 48,54.445312 48,62.398438 V 321.60156 C 48,329.55469 56.058594,336 66,336 h 252 c 9.94141,0 18,-6.44531 18,-14.39844 z m 0,0" style="fill:rgb(6.666%,17.647%,36.078%);fill-opacity:1" /> <use height="100%" width="100%" y="0" x="0" style="fill:rgb(100.000%,78.039%,18.823%);fill-opacity:1" id="use65" xlink:href="#surface8" mask="url(#mask1)" /> <path id="path951-2" d="m 102.95379,98.411237 c -6.198923,3.001443 -5.852025,-2.584135 -5.781642,93.954283 l 0.07041,88.03185 2.237263,2.39313 c 1.226709,1.3172 2.996399,2.80535 3.926499,3.30811 2.26237,1.21665 174.94259,1.21665 177.20497,0 0.93009,-0.50276 2.70981,-2.00096 3.95163,-3.33326 l 2.26236,-2.41824 0.0201,-87.90115 c 0.0251,-95.874788 0.32177,-90.81711 -5.45486,-93.909026 -3.70527,-1.980844 -174.35939,-2.1015 -178.43671,-0.125815 z m 169.19615,15.444533 c 1.41271,3.10702 0.17595,7.25472 -2.45847,8.24012 -6.80223,2.52884 -11.18121,-7.124 -4.72082,-10.412 2.94108,-1.49317 5.91736,-0.59324 7.17929,2.17188 z m -151.38868,-1.34736 c 2.18698,2.18698 1.42782,7.491 -1.32223,9.29589 -4.9521,3.24275 -10.13046,-2.33277 -7.51112,-8.08425 0.83959,-1.83507 1.86018,-2.39814 4.36892,-2.39814 1.80487,0 3.81086,0.53292 4.46443,1.1865 z m 0,150.98144 c 1.92554,1.93056 1.46302,7.48094 -0.72396,8.65235 -4.32366,2.31266 -8.94897,-0.19607 -8.94897,-4.85658 0,-3.43882 1.6842,-4.97724 5.42971,-4.97724 1.67918,0 3.58965,0.53292 4.24322,1.18147 z m 150.61444,0.36701 c 2.01101,2.01099 1.97579,5.22357 -0.0804,7.50105 -4.52476,4.99233 -12.423,-1.08594 -8.73278,-6.71678 1.79984,-2.75002 6.43522,-3.1623 8.81324,-0.78427 z m 0,0" style="fill:rgb(100.000%,100.000%,100.000%);fill-opacity:1;stroke-width:1.28704488" inkscape:connector-curvature="0" /> </svg>

<svg width="512" height="512" version="1.1" viewBox="0 0 384 384" xmlns="http://www.w3.org/2000/svg"><defs><clipPath><rect width="384" height="384"/></clipPath><clipPath><rect width="384" height="384"/></clipPath><clipPath><rect width="384" height="384"/></clipPath><clipPath><rect width="384" height="384"/></clipPath></defs><g fill="#ffc62f"><path d="m348 240v12h-312v-12z"/><path d="m348 276v12h-312v-12z"/><path d="m348 312v12h-312v-12z"/><path d="m348 132v12h-312v-12z"/><path d="m348 168v12h-312v-12z"/><path d="m348 204v12h-312v-12z"/><path d="m348 96v12h-312v-12z"/><path d="m348 60v12h-312v-12z"/><path d="m144 348h-12v-312h12z"/><path d="m108 348h-12v-312h12z"/><path d="m72 348h-12v-312h12z"/><path d="m252 348h-12v-312h12z"/><path d="m216 348h-12v-312h12z"/><path d="m180 348h-12v-312h12z"/><path d="m288 348h-12v-312h12z"/><path d="m324 348h-12v-312h12z"/></g><g><path d="m336 321.6v-259.2c0-7.9531-8.0586-14.398-18-14.398h-252c-9.9414 0-18 6.4453-18 14.398v259.2c0 7.9531 8.0586 14.398 18 14.398h252c9.9414 0 18-6.4453 18-14.398z" fill="#102c5b"/><path d="m102.95 105.91c-6.1989 3.0014-5.852-2.5841-5.7816 93.954l0.0704 88.032 2.2373 2.3931c1.2267 1.3172 2.9964 2.8054 3.9265 3.3081 2.2624 1.2166 174.94 1.2166 177.2 0 0.93009-0.50277 2.7098-2.001 3.9516-3.3333l2.2624-2.4182 0.0201-87.901c0.0251-95.875 0.32177-90.817-5.4549-93.909-3.7053-1.9808-174.36-2.1015-178.44-0.12581zm169.2 15.445c1.4127 3.107 0.17595 7.2547-2.4585 8.2401-6.8022 2.5288-11.181-7.124-4.7208-10.412 2.9411-1.4932 5.9174-0.59324 7.1793 2.1719zm-151.39-1.3474c2.187 2.187 1.4278 7.491-1.3222 9.2959-4.9521 3.2428-10.13-2.3328-7.5111-8.0842 0.83959-1.8351 1.8602-2.3981 4.3689-2.3981 1.8049 0 3.8109 0.53292 4.4644 1.1865zm0 150.98c1.9255 1.9306 1.463 7.4809-0.72396 8.6524-4.3237 2.3127-8.949-0.19608-8.949-4.8566 0-3.4388 1.6842-4.9772 5.4297-4.9772 1.6792 0 3.5896 0.53291 4.2432 1.1815zm150.61 0.36701c2.011 2.011 1.9758 5.2236-0.0804 7.501-4.5248 4.9923-12.423-1.0859-8.7328-6.7168 1.7998-2.75 6.4352-3.1623 8.8132-0.78427z" opacity=".3" stroke-width="1.287"/><path d="m102.95 98.411c-6.1989 3.0014-5.852-2.5841-5.7816 93.954l0.07041 88.032 2.2373 2.3931c1.2267 1.3172 2.9964 2.8054 3.9265 3.3081 2.2624 1.2166 174.94 1.2166 177.2 0 0.93009-0.50276 2.7098-2.001 3.9516-3.3333l2.2624-2.4182 0.0201-87.901c0.0251-95.875 0.32177-90.817-5.4549-93.909-3.7053-1.9808-174.36-2.1015-178.44-0.12582zm169.2 15.445c1.4127 3.107 0.17595 7.2547-2.4585 8.2401-6.8022 2.5288-11.181-7.124-4.7208-10.412 2.9411-1.4932 5.9174-0.59324 7.1793 2.1719zm-151.39-1.3474c2.187 2.187 1.4278 7.491-1.3222 9.2959-4.9521 3.2428-10.13-2.3328-7.5111-8.0842 0.83959-1.8351 1.8602-2.3981 4.3689-2.3981 1.8049 0 3.8109 0.53292 4.4644 1.1865zm0 150.98c1.9255 1.9306 1.463 7.4809-0.72396 8.6524-4.3237 2.3127-8.949-0.19607-8.949-4.8566 0-3.4388 1.6842-4.9772 5.4297-4.9772 1.6792 0 3.5896 0.53292 4.2432 1.1815zm150.61 0.36701c2.011 2.011 1.9758 5.2236-0.0804 7.501-4.5248 4.9923-12.423-1.0859-8.7328-6.7168 1.7998-2.75 6.4352-3.1623 8.8132-0.78427z" fill="#fff" stroke-width="1.287"/><path transform="scale(.75)" d="m88 64c-13.255 0-24 8.5931-24 19.197v10c0-10.604 10.745-19.197 24-19.197h336c13.255 0 24 8.5931 24 19.197v-10c0-10.604-10.745-19.197-24-19.197h-336z" fill="#fff" opacity=".3" stroke-width="1.3333"/><path transform="scale(.75)" d="m64 418.8v10c0 10.604 10.745 19.197 24 19.197h336c13.255 0 24-8.5931 24-19.197v-10c0 10.604-10.745 19.197-24 19.197h-336c-13.255 0-24-8.5931-24-19.197z" fill="#050f20" opacity=".3" stroke-width="1.3333"/></g></svg>
